X: 013
M: C
L: 1/8
K: F
facf dfcf | BfAf Gg-gb | afcf dfeg | fcdB AFFc |
facf BfAf | cfaf dgbg | afcf dbga | fcdB AF-F |]


